images/stake.svg

<svg height="250" viewBox="0 0 250 250" width="250" xmlns="http://www.w3.org/2000/svg"><g fill-rule="evenodd"><path d="m125 .0976562c68.945312 0 125 55.9570318 125 124.9023438s-56.054688 124.902344-125 124.902344-125-55.957032-125-124.902344 56.054688-124.9023438 125-124.9023438zm0 0" fill="#48a9a6"/><g fill="#fff"><path d="m60.839844 86.621094h51.367187v-25.683594h-51.367187zm0 0"/><path d="m137.792969 86.621094h51.367187v-25.683594h-51.367187zm0 0"/><path d="m189.160156 137.890625h-25.683594v25.683594h-25.683593v25.683593h51.367187zm0 0"/><path d="m112.207031 189.257812v-25.683593h-25.683593v-25.683594h-25.683594v51.367187zm0 0"/></g></g></svg>

<!-- Generator: Adobe Illustrator 24.0.0, SVG Export Plug-In . SVG Version: 6.00 Build 0)  -->
<svg xmlns="http://www.w3.org/2000/svg" xmlns:xlink="http://www.w3.org/1999/xlink" width="250px" height="250px" viewBox="0 0 250 250" version="1.1">
<g id="surface1">
<path style=" stroke:none;fill-rule:evenodd;fill:rgb(28.235295%,66.274512%,65.098041%);fill-opacity:1;" d="M 125 0.0976562 C 193.945312 0.0976562 250 56.054688 250 125 C 250 193.945312 193.945312 249.902344 125 249.902344 C 56.054688 249.902344 0 193.945312 0 125 C 0 56.054688 56.054688 0.0976562 125 0.0976562 Z M 125 0.0976562 "/>
<path style=" stroke:none;fill-rule:evenodd;fill:rgb(100%,100%,100%);fill-opacity:1;" d="M 60.839844 86.621094 L 112.207031 86.621094 L 112.207031 60.9375 L 60.839844 60.9375 Z M 60.839844 86.621094 "/>
<path style=" stroke:none;fill-rule:evenodd;fill:rgb(100%,100%,100%);fill-opacity:1;" d="M 137.792969 86.621094 L 189.160156 86.621094 L 189.160156 60.9375 L 137.792969 60.9375 Z M 137.792969 86.621094 "/>
<path style=" stroke:none;fill-rule:evenodd;fill:rgb(100%,100%,100%);fill-opacity:1;" d="M 189.160156 137.890625 L 163.476562 137.890625 L 163.476562 163.574219 L 137.792969 163.574219 L 137.792969 189.257812 L 189.160156 189.257812 Z M 189.160156 137.890625 "/>
<path style=" stroke:none;fill-rule:evenodd;fill:rgb(100%,100%,100%);fill-opacity:1;" d="M 112.207031 189.257812 L 112.207031 163.574219 L 86.523438 163.574219 L 86.523438 137.890625 L 60.839844 137.890625 L 60.839844 189.257812 Z M 112.207031 189.257812 "/>
</g>
</svg>
